!!!SOCIAL_FUNCTION:	songs in honor of an individual
!!!PDT:	1918

Specific Region: Dakotas, Minnesota, Montana, Nebraska
!!!REG: Dakotas and Montana
!!!LING_GROUP: Siouan
!!!LANG: Tone
!!!OTL@ENG: The White Horse Riders Said This
!!!ONM: No. 224
**kern
*Imale
*clefF4
*k[b-e-a-]
*M2/4
*MM69
4g
8.g
16f
=2
8.f
16f
4f
=3
8.f
16d
8.d
16f
=4||
*M3/4
4d
8.c
16c
8.c
16c
=5
2.c
=6||
*M2/4
12d
12d
12d
4f
=7
8.f
16d
4c
=8||
*M3/4
16d
8.c
8c
8c
16c
16A
8G
=9||
*M2/4
8B-
8B-
4B-
=10
8G
8G
16G
8.G
=11
8.F
16D
4C
=12
4G
8.G
16F
=13
8E-
8E-
8.F
16C
=14
4C
8C
8C
=15
[2C
=16||
*M3/4
2C]
8d
8d
=17
16d
8.f
8f
8f
(16f
16d
8c)
=18
16d
8.c
8c
8c
(16c
16A)
8G
=19
16G
8.B-
16B-
8.B-
8G
8G
=20
16G
8.G
8F
8F
(16F
16D)
8C
=21||
*M2/4
16C
8.G
16G
8.G
=22
16G
8.G
(16G
16F)
8E-
=23||
*M3/4
16E-
8.F
(16F
16C)
8C
8.C
16C
=24||
*M2/4
2C
=25
4C
4r
==
*-
!!!CNT: Native American -- Sioux
!!!MRD: 1911/07//-1914///
!!!OCL: Frances Densmore
!!!YOR1: Teton Sioux Music, Bulletin 61,
!!!YOR2: Bureau of American Ethnology, Smithsonian Institution
!!!PPR: Government Printing Office
!!!PPP: Washington, D.C.
!!!PDT: 1918///
!!!ENC: Craig Stuart Sapp
!!!END: 2002/03/25/
!!!EEV: 2002/03/31/
!!!AGN: Song in Honor of an Individual
!!!MPN@@SIO: Shiya'ka
!!!MPN@ENG: Teal Duck
!!!TXO: Teton Sioux
!!!MLC: Standing Rock Reservation, South Dakota, United States of America
!!!ARL: 45.9/-100.7#
!!!catalog: Catalogue No. 477
!!!PPG: 502
!!!EFL: 229/245
!!!VTS: 1244878611
